ZUCCAL
CUT["Aelplers Fruehlingslied"
    SO KOMMT SIE  DENN SCHOEN WIEDER]
REG[Europa, Mitteleuropa, Tirol]
KEY[Z1264  16  D 2/4]
MEL[-5_  -5_.-5-4_-2_  -3_-5_1_
    -5_  -5_4_2_-7_  1__
    -6__  -5__--7__  -1__0__
    -5_-5_-4_-2_  -3_-5_1_-5_  -5_3_2_-7_  1__
    -6__  -5__--7__  -1__0__
    2__-5__  1_3_5__
    2_-5_2__  3_-5_1__
    2__-5__  1_3_5__
    4_-5_2__  1__0_ //] >>
FCT[Natur und Welt]
